X:1
T:Fort Polk, 87.87 D
T:Fort Polk, 87.87 D
T:J. B. Gray, 1894
T:Public Domain Courtesy of the Cyber Hymnal™
C:J. B. Gray, 1894
Z:Public Domain
Z:Courtesy of the Cyber Hymnal™
%%score ( 1 2 ) ( 3 4 )
L:1/8
Q:1/4=108
M:6/8
K:C
V:1 treble 
V:2 treble 
V:3 bass 
V:4 bass 
V:1
 E | A2 c BA^G | A2 F E2 E | (A^G)[CA] (cB)A | e3 [=Ge]2 [Ge] | [Gg]2 [Gg] (cd)[Ee] | %6
 [Df]2 [Df] (Bc)[Fd] | (eA)[Fd] [Ec]2 [DB] | ([CA]3 !fermata![CG]2) [CE] | %9
 [CE]2 [C^D] [CE]2 [=DF] | [FA]2 [FG] [EG]2 G | [GA]2 [FB] [Ec]2 [Ad] | ([Gc]3 [GB]2) G | %13
 (GA)[GB] (cd)[Ge] | [Gf]2 [Gf] e2 [Ge] | [Ae][Fd][Fc] (BA)[FG] | c3 [Ec]2 [Gc] | %17
 ce[Ad] [Gc]2 [FB] | [Ec]3- [Ec]2 |] %19
V:2
 E | A2 c (BA)^G | A2 F E2 E | C2 E2 A x | A^G^F x3 | x3 E2 x | x3 D2 x | E2 x4 | x6 | x6 | x5 G | %11
 x6 | x5 G | G2 G2 x2 | x3 (GF) x | x3 F2 x | FED x3 | A2 x4 | x5 |] %19
V:3
 E, | A,2 C (B,A,)^G, | A,2 F, E,2 E, | [A,,A,]2 [A,,A,] A,2 [A,C] | (CB,A, [E,B,]2) C | %5
 [B,D]2 [B,D] [A,C]2 [A,C] | [D,A,]2 [D,A,] G,2 [G,B,] | [C,A,]2 [D,A,] [E,A,]2 [E,^G,] | %8
 (A,2 E, [B,,G,]2) [C,G,] | [C,G,]2 [C,A,] [C,G,]2 [C,G,] | [B,,G,]2 [B,,G,] [C,G,]2 [E,C] | %11
 [F,C]2 [D,D] [A,C]2 [F,F] | ([G,E]3 [G,D]2) G, | G,2 [F,D] ([E,C][D,B,])[C,C] | %14
 ([G,,B,][A,,C])[B,,D] C2 [E,C] | (CD)[F,D] G,2 G, | (A,G,F, [C,G,]2) [E,C] | %17
 [F,C]2 [F,D] [G,E]2 [G,D] | [C,C]3- [C,C]2 |] %19
V:4
 E, | A,2 C B,A,^G, | A,2 F, E,2 E, | x3 A,2 x | E,3 x C x | x6 | x3 G,2 x | x6 | A,,3 x3 | x6 | %10
 x6 | x6 | x5 G, | G,2 x4 | x3 (C,D,) x | F,2 G,2 G, x | C,3 x3 | x6 | x5 |] %19

